flaticon/travel/airplane-1.svg

<svg xmlns="http://www.w3.org/2000/svg" width="32" height="32" viewBox="0 0 24 24">
    <path d="M 10.683594 5.082031 L 11.621094 4.144531 C 11.828125 3.9375 12.171875 3.9375 12.378906 4.144531 L 13.316406 5.082031 C 13.394531 5.160156 13.496094 5.199219 13.601562 5.199219 C 13.703125 5.199219 13.804688 5.160156 13.882812 5.082031 C 14.039062 4.925781 14.039062 4.671875 13.882812 4.515625 L 12.945312 3.578125 C 12.441406 3.074219 11.558594 3.074219 11.054688 3.578125 L 10.117188 4.515625 C 9.960938 4.671875 9.960938 4.925781 10.117188 5.082031 C 10.273438 5.238281 10.527344 5.238281 10.683594 5.082031 Z M 10.683594 5.082031"/>
    <path d="M 23.644531 12.851562 L 22.800781 12.332031 L 22.800781 10.199219 C 22.800781 9.429688 22.171875 8.800781 21.398438 8.800781 C 20.628906 8.800781 20 9.429688 20 10.199219 L 20 10.601562 L 19.199219 10.109375 L 19.199219 7.398438 C 19.199219 6.628906 18.570312 6 17.800781 6 C 17.027344 6 16.398438 6.628906 16.398438 7.398438 L 16.398438 8.378906 L 15.601562 7.886719 C 15.605469 7.039062 15.601562 6.488281 15.601562 6.398438 C 15.601562 5.015625 15.355469 3.742188 14.875 2.625 C 14.484375 1.714844 13.382812 0 12 0 C 10.617188 0 9.515625 1.714844 9.125 2.625 C 8.644531 3.742188 8.398438 5.015625 8.398438 6.398438 C 8.398438 6.488281 8.394531 7.039062 8.398438 7.886719 L 7.601562 8.378906 L 7.601562 7.398438 C 7.601562 6.628906 6.972656 6 6.199219 6 C 5.429688 6 4.800781 6.628906 4.800781 7.398438 L 4.800781 10.109375 L 4 10.601562 L 4 10.199219 C 4 9.429688 3.371094 8.800781 2.601562 8.800781 C 1.828125 8.800781 1.199219 9.429688 1.199219 10.199219 L 1.199219 12.332031 L 0.355469 12.851562 C 0.140625 12.964844 0 13.195312 0 13.441406 L 0 15.601562 C 0 15.808594 0.09375 16.003906 0.261719 16.128906 C 0.378906 16.222656 0.523438 16.269531 0.664062 16.269531 C 0.722656 16.269531 0.785156 16.257812 0.84375 16.242188 L 0.957031 16.191406 C 2.984375 14.875 5.886719 14.460938 8.539062 14.128906 C 8.632812 16.34375 8.792969 18.605469 9.0625 20.28125 L 7.0625 21.335938 L 6.980469 21.394531 C 6.867188 21.5 6.800781 21.648438 6.800781 21.804688 L 6.800781 23.445312 C 6.800781 23.648438 6.914062 23.835938 7.09375 23.933594 C 7.253906 24.019531 7.445312 24.023438 7.605469 23.941406 L 12 22.445312 L 16.394531 23.941406 C 16.472656 23.980469 16.558594 24 16.644531 24 C 16.734375 24 16.824219 23.976562 16.90625 23.933594 C 17.085938 23.835938 17.199219 23.648438 17.199219 23.445312 L 17.199219 21.804688 C 17.199219 21.648438 17.132812 21.5 17.019531 21.394531 L 14.9375 20.289062 C 15.207031 18.613281 15.367188 16.347656 15.460938 14.128906 C 18.105469 14.457031 21.015625 14.875 23.042969 16.191406 L 23.15625 16.242188 C 23.214844 16.257812 23.273438 16.269531 23.335938 16.269531 C 23.476562 16.269531 23.621094 16.222656 23.738281 16.128906 C 23.90625 16.003906 24 15.808594 24 15.601562 L 24 13.441406 C 24 13.195312 23.859375 12.964844 23.644531 12.851562 Z M 5.601562 7.398438 C 5.601562 7.070312 5.871094 6.800781 6.199219 6.800781 C 6.53125 6.800781 6.800781 7.070312 6.800781 7.398438 L 6.800781 8.460938 L 5.601562 9.277344 Z M 2 10.199219 C 2 9.871094 2.269531 9.601562 2.601562 9.601562 C 2.929688 9.601562 3.199219 9.871094 3.199219 10.199219 L 3.199219 10.914062 L 2 11.730469 Z M 0.800781 15.347656 L 0.800781 13.515625 L 8.398438 8.828125 C 8.40625 9.660156 8.421875 10.902344 8.472656 12.292969 C 8.480469 12.632812 8.492188 12.976562 8.503906 13.324219 C 5.875 13.652344 2.972656 14.058594 0.800781 15.347656 Z M 9.199219 6.398438 C 9.199219 5.125 9.421875 3.960938 9.859375 2.9375 C 10.304688 1.902344 11.207031 0.800781 12 0.800781 C 12.792969 0.800781 13.695312 1.902344 14.140625 2.9375 C 14.578125 3.960938 14.800781 5.125 14.800781 6.402344 C 14.800781 6.421875 14.804688 6.789062 14.800781 7.394531 L 14.800781 7.449219 C 14.796875 8.625 14.78125 10.652344 14.707031 12.855469 C 14.695312 13.121094 14.683594 13.386719 14.671875 13.65625 L 14.667969 13.945312 C 14.578125 16.070312 14.429688 18.246094 14.191406 19.890625 L 12.390625 18.941406 L 12.328125 18.910156 C 12.296875 18.886719 12.257812 18.871094 12.222656 18.855469 C 12.082031 18.792969 11.921875 18.792969 11.78125 18.851562 C 11.742188 18.867188 11.703125 18.882812 11.671875 18.910156 L 9.808594 19.890625 C 9.570312 18.269531 9.425781 16.128906 9.335938 14.027344 L 9.347656 14.027344 L 9.328125 13.65625 C 9.316406 13.386719 9.304688 13.121094 9.292969 12.855469 C 9.21875 10.652344 9.203125 8.625 9.199219 7.449219 L 9.199219 7.394531 C 9.195312 6.789062 9.199219 6.417969 9.199219 6.398438 Z M 16.398438 21.957031 L 16.398438 23.097656 L 12.234375 21.679688 C 12.085938 21.609375 11.914062 21.609375 11.765625 21.679688 L 7.601562 23.097656 L 7.601562 21.957031 L 12 19.640625 Z M 20.800781 10.199219 C 20.800781 9.871094 21.070312 9.601562 21.398438 9.601562 C 21.730469 9.601562 22 9.871094 22 10.199219 L 22 11.730469 L 20.800781 10.914062 Z M 17.199219 7.398438 C 17.199219 7.070312 17.46875 6.800781 17.800781 6.800781 C 18.128906 6.800781 18.398438 7.070312 18.398438 7.398438 L 18.398438 9.277344 L 17.199219 8.460938 Z M 23.199219 15.347656 C 21.03125 14.0625 18.132812 13.65625 15.496094 13.324219 C 15.507812 12.976562 15.519531 12.628906 15.527344 12.289062 C 15.578125 10.902344 15.59375 9.660156 15.601562 8.828125 L 23.199219 13.515625 Z M 23.199219 15.347656"/>
</svg>

<svg xmlns="http://www.w3.org/2000/svg" width="32" height="32" viewBox="0 0 24 24">
    <path d="M10.684 5.082l.937-.937a.54.54 0 0 1 .758 0l.937.937a.399.399 0 0 0 .567 0 .4.4 0 0 0 0-.566l-.938-.938c-.504-.504-1.386-.504-1.89 0l-.938.938a.4.4 0 0 0 .567.566zm0 0"/>
    <path d="M23.645 12.852l-.844-.52v-2.133c0-.77-.63-1.398-1.403-1.398-.77 0-1.398.629-1.398 1.398v.403l-.8-.493V7.4c0-.77-.63-1.399-1.4-1.399-.773 0-1.402.629-1.402 1.398v.98l-.796-.491c.003-.848 0-1.399 0-1.489 0-1.382-.247-2.656-.727-3.773C14.485 1.715 13.383 0 12 0S9.516 1.715 9.125 2.625c-.48 1.117-.727 2.39-.727 3.773 0 .09-.003.641 0 1.489l-.796.492v-.98c0-.77-.63-1.399-1.403-1.399-.77 0-1.398.629-1.398 1.398v2.711L4 10.602v-.403c0-.77-.629-1.398-1.398-1.398-.774 0-1.403.629-1.403 1.398v2.133l-.844.52a.673.673 0 0 0-.355.59v2.16c0 .207.094.402.262.527a.647.647 0 0 0 .582.113l.113-.05c2.027-1.317 4.93-1.731 7.582-2.063.094 2.215.254 4.476.524 6.152l-2 1.055-.083.059a.562.562 0 0 0-.18.41v1.64a.558.558 0 0 0 .805.496L12 22.445l4.395 1.496a.56.56 0 0 0 .511-.007.558.558 0 0 0 .293-.489v-1.64a.562.562 0 0 0-.18-.41l-2.081-1.106c.269-1.676.43-3.941.523-6.16 2.644.328 5.555.746 7.582 2.062l.113.051a.647.647 0 0 0 .582-.113.653.653 0 0 0 .262-.527v-2.16a.673.673 0 0 0-.355-.59zM5.602 7.398a.6.6 0 0 1 1.199 0v1.063l-1.2.816zM2 10.2a.6.6 0 0 1 1.2 0v.715L2 11.73zM.8 15.348v-1.832l7.598-4.688c.008.832.024 2.074.075 3.465.007.34.02.684.03 1.031-2.628.328-5.53.735-7.702 2.024zm8.4-8.95c0-1.273.222-2.437.66-3.46C10.304 1.901 11.206.8 12 .8c.793 0 1.695 1.101 2.14 2.136.438 1.024.66 2.188.66 3.465 0 .02.005.387 0 .993v.054c-.003 1.176-.019 3.203-.093 5.406l-.035.801-.004.29c-.09 2.124-.238 4.3-.477 5.945l-1.8-.95-.063-.03c-.031-.024-.07-.04-.105-.056a.56.56 0 0 0-.442-.003c-.039.015-.078.03-.11.058l-1.862.98c-.239-1.62-.383-3.761-.473-5.863h.012l-.02-.37-.035-.802c-.074-2.203-.09-4.23-.094-5.406v-.054c-.004-.606 0-.977 0-.997zm7.198 15.559v1.14l-4.164-1.417a.547.547 0 0 0-.468 0l-4.164 1.418v-1.141L12 19.641zm4.403-11.758a.6.6 0 0 1 1.199 0v1.531l-1.2-.816zm-3.602-2.8a.6.6 0 0 1 1.2 0v1.878l-1.2-.816zm6 7.949c-2.168-1.286-5.066-1.692-7.703-2.024.012-.347.024-.695.031-1.035.051-1.387.067-2.629.075-3.46l7.597 4.687zm0 0"/>
</svg>
